packages/core/src/svgs/tokens/branded/SOON.svg

<svg width="24" height="24" viewBox="0 0 24 24" fill="none" xmlns="http://www.w3.org/2000/svg">
<path d="M18.4376 2.18181C17.3189 1.81308 15.919 1.99432 14.1003 2.82554L14.069 2.83804L14.044 2.85679L13.9191 2.93179C13.8791 2.9497 13.8371 2.9623 13.7941 2.96928C13.6378 2.99429 13.369 3.00679 12.8128 3.00679C12.2504 3.00679 10.5316 3.03178 8.81295 3.55677C7.14425 4.06925 5.3818 5.08797 4.79432 7.1004L4.71932 7.14415C4.38808 7.33164 4.11309 7.49414 3.90685 7.66914C3.63186 7.91913 3.48186 8.18786 3.38186 8.59411C3.34437 8.7316 3.31936 8.92535 3.40062 9.10656C3.51311 9.33157 3.73185 9.4004 3.90685 9.4004C4.06309 9.4004 4.23184 9.35038 4.38808 9.28782C4.53808 9.22541 4.71308 9.13791 4.90057 9.0316C5.81814 8.80899 6.75253 8.66267 7.69422 8.59411C8.35671 8.55661 8.88169 8.59411 9.26917 8.70035C9.51169 9.65516 9.95019 10.5489 10.5567 11.3253C10.7878 11.594 11.0691 11.8441 11.394 11.9378C11.4815 11.9628 11.5816 11.9816 11.6691 11.9877C11.7503 11.9877 11.8753 11.9877 11.9941 11.919C12.0495 11.8863 12.098 11.843 12.1366 11.7916C12.1752 11.7401 12.2032 11.6815 12.2191 11.619C12.2441 11.5253 12.2441 11.4315 12.2378 11.3628C12.2315 11.2565 12.2066 11.1253 12.1754 10.9877L12.1629 10.8879C12.1316 10.7129 12.1003 10.5128 12.0816 10.2691C12.0628 10.0003 12.0628 9.47536 12.0754 8.69411C15.9064 9.33157 18.6877 11.2628 20.4563 14.5002C20.4814 14.5377 20.5438 14.6252 20.6687 14.6752C20.8125 14.7252 20.9375 14.6752 21.0063 14.6314C21.0688 14.5877 21.1062 14.5377 21.125 14.5127C21.1417 14.4889 21.1563 14.4639 21.1688 14.4376C21.2 14.3627 21.2314 14.2626 21.25 14.1627C21.2938 13.9564 21.3312 13.6501 21.3563 13.2815C21.4001 12.5315 21.375 11.4878 21.1439 10.3441V10.3252L21.1313 10.3003C20.7877 9.17685 20.2824 8.1095 19.6313 7.13166C18.9083 6.17465 18.0685 5.31174 17.1314 4.56298L16.9064 4.36924L17.0564 4.2005C17.1751 4.07549 17.3064 3.95676 17.4314 3.83801L17.6189 3.66302C17.7752 3.56302 17.8939 3.46927 17.994 3.38803L18.0438 3.34428C18.1501 3.25678 18.2688 3.16929 18.4813 3.06928C18.5313 3.04428 18.6002 3.00679 18.6563 2.95678C18.7041 2.91785 18.7432 2.86939 18.7712 2.81451C18.7991 2.75964 18.8154 2.69954 18.8189 2.63805C18.8211 2.56954 18.807 2.50148 18.7776 2.43952C18.7482 2.37757 18.7046 2.32349 18.6502 2.2818C18.5859 2.23454 18.514 2.19861 18.4376 2.17557V2.18181Z" fill="url(#paint0_linear_364_10323)"/>
<path d="M3.6442 10.994C3.66078 10.8755 3.62959 10.7553 3.55751 10.6598C3.48543 10.5643 3.37836 10.5013 3.25984 10.4846C3.14133 10.4682 3.02108 10.4992 2.92556 10.5714C2.83003 10.6434 2.76706 10.7505 2.75048 10.869C2.68799 11.3065 2.62549 12.0314 2.62549 12.5003C2.62549 17.8751 6.78161 22 12.0815 22C15.8439 22 19.0312 19.5876 20.6062 16.4501C20.6327 16.3973 20.6483 16.3397 20.6524 16.2807C20.6564 16.2218 20.6485 16.1626 20.6292 16.1068C20.61 16.0508 20.5798 15.9993 20.5404 15.9553C20.501 15.9112 20.4534 15.8755 20.4 15.8501C20.347 15.8233 20.2893 15.8071 20.2302 15.8027C20.171 15.7982 20.1115 15.8055 20.0552 15.824C19.9988 15.8425 19.9467 15.8721 19.9018 15.9109C19.8569 15.9497 19.8202 15.9971 19.7936 16.0502C18.3499 18.9437 15.4438 21.1062 12.0815 21.1062C10.9498 21.1198 9.82711 20.906 8.77961 20.4777C7.73213 20.0494 6.78129 19.4152 5.98343 18.6127C5.18556 17.8102 4.55689 16.8556 4.13468 15.8056C3.71247 14.7557 3.5053 13.6318 3.52546 12.5003C3.52546 12.0877 3.58796 11.4066 3.6442 10.994Z" fill="url(#paint1_linear_364_10323)"/>
<defs>
<linearGradient id="paint0_linear_364_10323" x1="2.62323" y1="15.5873" x2="20.7774" y2="17.3952" gradientUnits="userSpaceOnUse">
<stop stop-color="#E3BF9F"/>
<stop offset="0.47" stop-color="#C2DAA8"/>
<stop offset="1" stop-color="#61B2C8"/>
</linearGradient>
<linearGradient id="paint1_linear_364_10323" x1="3.34422" y1="10.6248" x2="20.5811" y2="13.2248" gradientUnits="userSpaceOnUse">
<stop stop-color="#E3BF9F"/>
<stop offset="0.47" stop-color="#C2DAA8"/>
<stop offset="1" stop-color="#61B2C8"/>
</linearGradient>
</defs>
</svg>

<svg xmlns="http://www.w3.org/2000/svg" width="24" height="24" fill="none" viewBox="0 0 24 24">
    <path fill="url(#SOON__a)" d="M18.438 2.182c-1.12-.369-2.519-.188-4.338.644l-.031.012-.025.019-.125.075a.5.5 0 0 1-.125.037c-.156.025-.425.038-.981.038-.563 0-2.281.025-4 .55-1.669.512-3.431 1.531-4.019 3.543l-.075.044c-.33.188-.606.35-.812.525-.275.25-.425.519-.525.925a.77.77 0 0 0 .019.513.55.55 0 0 0 .506.293c.156 0 .325-.05.481-.112.15-.063.325-.15.513-.256a17 17 0 0 1 2.793-.438Q8.69 8.54 9.27 8.7a7.1 7.1 0 0 0 1.288 2.625c.23.269.512.52.837.613.088.025.188.044.275.05.081 0 .206 0 .325-.069a.5.5 0 0 0 .225-.3.8.8 0 0 0 .019-.256 2.5 2.5 0 0 0-.063-.375l-.012-.1a6 6 0 0 1-.081-.619q-.028-.403-.007-1.575c3.831.638 6.613 2.569 8.381 5.806a.46.46 0 0 0 .213.175.39.39 0 0 0 .337-.044c.063-.043.1-.093.119-.118l.044-.075c.031-.075.062-.175.081-.275.044-.207.081-.513.106-.882a11.7 11.7 0 0 0-.212-2.937v-.019l-.013-.025a12.1 12.1 0 0 0-1.5-3.168 14.4 14.4 0 0 0-2.5-2.569l-.225-.194.15-.168c.12-.126.25-.244.375-.363l.188-.175c.156-.1.275-.194.375-.275l.05-.044c.106-.087.225-.175.437-.275a.8.8 0 0 0 .175-.112.44.44 0 0 0 .163-.319.43.43 0 0 0-.169-.356.7.7 0 0 0-.212-.106z"/>
    <path fill="url(#SOON__b)" d="M3.644 10.994a.451.451 0 1 0-.894-.125 14 14 0 0 0-.125 1.631c0 5.375 4.157 9.5 9.456 9.5 3.763 0 6.95-2.412 8.525-5.55a.45.45 0 0 0-.066-.495.4.4 0 0 0-.14-.105.45.45 0 0 0-.606.2c-1.444 2.894-4.35 5.056-7.712 5.056A8.456 8.456 0 0 1 3.524 12.5c0-.412.063-1.093.12-1.506"/>
    <defs>
        <linearGradient id="SOON__a" x1="2.623" x2="20.777" y1="15.587" y2="17.395" gradientUnits="userSpaceOnUse">
            <stop stop-color="#E3BF9F"/>
            <stop offset=".47" stop-color="#C2DAA8"/>
            <stop offset="1" stop-color="#61B2C8"/>
        </linearGradient>
        <linearGradient id="SOON__b" x1="3.344" x2="20.581" y1="10.625" y2="13.225" gradientUnits="userSpaceOnUse">
            <stop stop-color="#E3BF9F"/>
            <stop offset=".47" stop-color="#C2DAA8"/>
            <stop offset="1" stop-color="#61B2C8"/>
        </linearGradient>
    </defs>
</svg>
